X:1
T:Auf Freunde, lasst das Jahr uns singen
T:Felix Mendelssohn Bartholdy (1809-1847)
T:Auf Freunde, lasst das Jahr uns singen
T:Copyright © 2016 by CPDL - Edited by Alexander Reuter from autograph stored at State Library Berlin-Prussian Cultural Heritage under signatory Mus.ms.autogr. Mendelssohn Bartholdy, F. 20 (3) - http://resolver.staatsbibliothek-berlin.de/SBB00005C3D00000000 This edition can be fully distributed, duplicated, performed and recorded.
T:Lied für die Stiftungsfeier der Gesellschaft der Freunde in Berlin, Januar 1842 MWV G 32
T:Copyright © 2016 by CPDL - Edited by Alexander Reuter from autograph stored at State Library Berlin-Prussian Cultural Heritage under signatory Mus.ms.autogr. Mendelssohn Bartholdy, F. 20 (3) - http://resolver.staatsbibliothek-berlin.de/SBB00005C3D00000000 This edition can be fully distributed, duplicated, performed and recorded.
T:Copyright © 2016 by CPDL - Edited by Alexander Reuter from autograph stored at State Library Berlin-Prussian Cultural Heritage under signatory Mus.ms.autogr. Mendelssohn Bartholdy, F. 20 (3) - http://resolver.staatsbibliothek-berlin.de/SBB00005C3D00000000 This edition can be fully distributed, duplicated, performed and recorded.
T:Copyright © 2016 by CPDL - Edited by Alexander Reuter from autograph stored at State Library Berlin-Prussian Cultural Heritage under signatory Mus.ms.autogr. Mendelssohn Bartholdy, F. 20 (3) - http://resolver.staatsbibliothek-berlin.de/SBB00005C3D00000000 This edition can be fully distributed, duplicated, performed and recorded.
T:Copyright © 2016 by CPDL - Edited by Alexander Reuter from autograph stored at State Library Berlin-Prussian Cultural Heritage under signatory Mus.ms.autogr. Mendelssohn Bartholdy, F. 20 (3) - http://resolver.staatsbibliothek-berlin.de/SBB00005C3D00000000 This edition can be fully distributed, duplicated, performed and recorded.
T:Copyright © 2016 by CPDL - Edited by Alexander Reuter from autograph stored at State Library Berlin-Prussian Cultural Heritage under signatory Mus.ms.autogr. Mendelssohn Bartholdy, F. 20 (3) - http://resolver.staatsbibliothek-berlin.de/SBB00005C3D00000000 This edition can be fully distributed, duplicated, performed and recorded.
T:Copyright © 2016 by CPDL - Edited by Alexander Reuter from autograph stored at State Library Berlin-Prussian Cultural Heritage under signatory Mus.ms.autogr. Mendelssohn Bartholdy, F. 20 (3) - http://resolver.staatsbibliothek-berlin.de/SBB00005C3D00000000 This edition can be fully distributed, duplicated, performed and recorded.
T:Copyright © 2016 by CPDL - Edited by Alexander Reuter from autograph stored at State Library Berlin-Prussian Cultural Heritage under signatory Mus.ms.autogr. Mendelssohn Bartholdy, F. 20 (3) - http://resolver.staatsbibliothek-berlin.de/SBB00005C3D00000000 This edition can be fully distributed, duplicated, performed and recorded.
T:Copyright © 2016 by CPDL - Edited by Alexander Reuter from autograph stored at State Library Berlin-Prussian Cultural Heritage under signatory Mus.ms.autogr. Mendelssohn Bartholdy, F. 20 (3) - http://resolver.staatsbibliothek-berlin.de/SBB00005C3D00000000 This edition can be fully distributed, duplicated, performed and recorded.
T:Copyright © 2016 by CPDL - Edited by Alexander Reuter from autograph stored at State Library Berlin-Prussian Cultural Heritage under signatory Mus.ms.autogr. Mendelssohn Bartholdy, F. 20 (3) - http://resolver.staatsbibliothek-berlin.de/SBB00005C3D00000000 This edition can be fully distributed, duplicated, performed and recorded.
C:Felix Mendelssohn Bartholdy
C:(1809-1847)
Z:Copyright © 2016 by CPDL - Edited by Alexander Reuter from autograph stored at State Library Berlin-Prussian Cultural Heritage
Z:under signatory Mus.ms.autogr. Mendelssohn Bartholdy, F. 20 (3) - http://resolver.staatsbibliothek-berlin.de/SBB00005C3D00000000
Z:This edition can be fully distributed, duplicated, performed and recorded.
%%score [ 1 2 3 4 ]
L:1/8
Q:1/4=80
M:3/8
K:Eb
V:1 tenor transpose=-12 nm="Tenore I" snm="T."
V:2 tenor transpose=-12 nm="Tenore II" snm="T."
V:3 bass nm="Basso I" snm="B."
V:4 bass nm="Basso II" snm="B."
V:1
!f!"^Andante" GFE |!f!"^solo" GFE | D2 E | (FE>)C | C B,2 | B,CD | (EF)G | (GF)C | (E2 D) | z3 | %10
w: Auf, Freunde- *|Auf, Freun- de,|lasst das|Jahr _ uns|sin- gen,|das un- sers|Bun- * des|Wie- * ge|war, _||
 z3 | z3 | z z B, | G2 G | (GF)F | F2 F | F E2 | EDC | (B,E)A | G2 F | E3 | (GF)E | (DE)C | B,2 D | %24
w: ||Ein|vol- les|Glas * der|Vor- zeit|brin- gen,|die die- sen|Fest- * tag|uns ge-|bar,|die- * sen|Fest- * tag|uns ge-|
 !fermata!E2!f!"^(tutti)" B, | (GF)E | D2 E | (FE>)C | CB, z/ B,/ | (B,C)D | (EF)G | (GF)C | %32
w: bar. Und|je- * nen|Män- nern,|die _ ver-|bün- det für|Wahr- * heit,|Recht * und|Mensch- * lich-|
 (E2 D) | z3 | z3 | z3 | z z B, | G2 G | (GF)F | F2 F | F E2 | EDC | (B,E)A | G2 F | E3 | GFE | %46
w: keit, _||||der|Freund- schaft|ein _ A-|syl ge-|grün- det,|Heil ih- nen,|Heil _ für|al- le|Zeit,|Heil ih- nen,|
 (DE)C | B,2 D |[M:4/4] !fermata!E2 z2 z4 | z8 | z8 | z8 | z2!pp! G2"^(solo)" G3 F | E2 D2 C2 D2 | %54
w: Heil _ für|al- le|Zeit.||||Wie vie- le|auch schon heim- ge-|
 C2 =B,>"^cresc."B, C2 C2 |"^al" E2 E2!f! (E2 _D>)C | C4 z4 | z8 | z4 z3/2!f! C/ C>C | %59
w: gan- gen, ihr gro- ßes,|schö- nes Werk _ be-|steht,||an ih- ren|
 G2 =E2 C2 B,2 | B,2 A,4 z2 | z8 | z4 z3/2!pp! D/ D>D | D2"^cresc." G2 ^F2 G2 | %64
w: Leh- ren lasst uns|han- gen,||an ih- ren|Leh- ren lasst uns|
 D2 C>"^cresc."C B,2 C2 | D2 E2!f! D3 D | D8- |"^rit." D6 z2 | z2!p!"^A tempo" B,2 E3 _D | %69
w: han- gen, auf dass dies|Werk nie un- ter-|geht,|_|Doch euch, die|
 C2!<(! C2 _D2!<)! E2 |!>(! E2 _D2!>)! D2 C>B, | B,2 F2 E2 (_D>C) | C3!pp! C C2 C2 | E2 E4 E>E | %74
w: ihr uns nah- ge-|blie- ben, euch grü- ßen|wir aus vol- ler _|Brust, und un- ser|Dan- ken, un- ser|
 E2 D7/2"^cresc." D/ D>E | F7/2 F/ F2 G2 |[M:3/8]!f!!<(! A3-!<)! | A3 |!f!"^(tutti)" GFE | D2 E | %80
w: Lie- ben er- kennt in|die- ses Ta- ges|Lust!|_|Auf Freun- de|lasst das|
 (FE>)C | C B,2 | B,CD | (EF)G | (GF)C | (E2 D) | z3 | z3 | z3 | z z B, | G2 G | (GF)F | F2 F | %93
w: Jahr _ uns|sin- gen,|das un- sers|Bun- * des|Wie- * ge|war, _||||Ein|vol- les|Glas * der|Vor- zeit|
 F E2 | EDC | (B,E)A | G2 F | E3 | GFE | (B,3 | B3- | B2) D | D2 D | !fermata!E3 |] %104
w: brin- gen,|die die- sen|Fest- * tag|uns ge-|bar,|die die- sen|Freu-||* den-|tag ge-|bar.|
V:2
!f! EDB, |!f!"^solo" EDB, | A,2 B, | C2- C/E/ | E B,2 | B,B,B, | (ED)_D | C2 C | B,3 | z3 | z3 | %11
w: |Auf, Freun- de,|lasst das|Jahr _ uns|sin- gen,|das un- sers|Bun- * des|Wie- ge|war,|||
 z3 | z z B, | =E2 E | _E2 E | D2 D | (DE)D | CB,A, | (G,B,)E | E2 A, | G,3 | (ED)C | (B,E,)E, | %23
w: |Ein|vol- les|Glas der|Vor- zeit|brin- * gen,|die die- sen|Fest- * tag|uns ge-|bar,|die- * sen|Fest- * tag|
 E,2 A, | !fermata!G,2!f!"^(tutti)" B, | (ED)B, | A,2 B, | C2- C/E/ | EB, z/ B,/ | B,2 B, | %30
w: uns ge-|bar. Und|je- * nen|Män- nern,|die * ver-|bün- det für|Wahr- heit,|
 (ED)_D | C2 C | B,3 | z3 | z3 | z3 | z z B, | =E2 E | _E2 E | D2 D | D (ED) | CB,A, | (G,B,)E | %43
w: Recht * und|Mensch- lich-|keit,||||der|Freund- schaft|ein A-|syl ge-|grün- det, _|Heil ih- nen,|Heil _ für|
 E2 A, | G,3 | EDC | (B,E,)E, | E,2 A, |[M:4/4] !fermata!G,2 z2 z4 | z8 | z8 | z8 | %52
w: al- le|Zeit,|Heil ih- nen,|Heil _ für|al- le|Zeit.||||
 z2!pp!"^(solo)" D2 D3 D | G,2 G,2 G,2 A,2 | G,2 G,>"^cresc."G, G,2 G,2 |"^al" A,2 A,2!f! A,2 E2 | %56
w: Wie vie- le|auch schon heim- ge-|gan- gen, ihr gro- ßes,|schö- nes Werk be-|
 E4 z4 | z8 | z4 z3/2!f! B,/ B,>B, | B,2 B,2 B,2 G,2 | G,2 A,4 z2 | z8 | z4 z3/2!pp! C/ C>C | %63
w: steht,||an ih- ren|Leh- ren lasst uns|han- gen,||an ih- ren|
 B,2"^cresc." D2 C2 B,2 | =A,2 A,>"^cresc."A, G,2 A,2 | B,2 C2!f! =A,3 A, | B,8- | B,6 z2 | %68
w: Leh- ren lasst uns|han- gen, auf dass dies|Werk nie un- ter-|geht,|_|
 z2!p! B,2 B,3 B, | A,2!<(! A,2 A,2!<)! A,2 |!>(! A,2 A,2!>)! A,2 A,>A, | A,2 G,2 A,2 B,2 | %72
w: Doch euch, die|ihr uns nah- ge-|blie- ben, euch grü- ßen|wir aus vol- ler|
 C3!pp! C C2 C2 | _C2 C4 C>C | B,2 B,7/2"^cresc." B,/ B,>E | D7/2 D/ D2 E2 |[M:3/8]!f! F3 | z3 | %78
w: Brust, und un- ser|Dan- ken, un- ser|Lie- ben er- kennt in|die- ses Ta- ges|Lust!||
!f!"^(tutti)" EDB, | A,2 B, | C2- C/E/ | E B,2 | B,B,B, | (ED)_D | C2 C | B,3 | z3 | z3 | z3 | %89
w: Auf Freun- de|lasst das|Jahr _ uns|sin- gen,|das un- sers|Bun- * des|Wie- ge|war,||||
 z z B, | =E2 E | _E2 E | D2 D | (DE)D | CB,A, | (G,B,)E | E2 A, | G,3 | EDC | (B,EG- | GFE | %101
w: Ein|vol- les|Glas der|Vor- zeit|brin- * gen,|die die- sen|Fest- * tag|uns ge-|bar,|die die- sen|Freu- * *||
 D2) B, | B,2 B, | !fermata!B,3 |] %104
w: * den-|tag ge-|bar.|
V:3
"^4 Solostimmen"!f! B,A,G, |"^solo"!f! B,A,G, | F,2 G, | A,2- A,/A,/ | A, G,2 | B,B,B, | B,2 B, | %7
w: |Auf, Freun- de,|lasst das|Jahr _ uns|sin- gen,|das un- sers|Bun- des|
 (B,A,)G, | (G,2 F,) | z3 | z3 | z3 | z z z/ B,/ | (B,C)B, | =A,2 (F,/G,/) | _A,2 A, | A, G,2 | %17
w: Wie- * ge|war, _||||Ein|vol- * les|Glas der _|Vor- zeit|brin- gen,|
 A,E,F, | G,2 C | (B,E)D | (DCB,) | =A,2 A, | (_A,G,)A, | G,2 F, | !fermata!E,2!f!"^(tutti)" B, | %25
w: die die- sen|Fest- tag|uns * ge-|bar, _ _|die- sen|Fest- * tag|uns ge-|bar. Und|
 (B,A,)G, | F,2 G, | A,2- A,/A,/ | A,G, z/ B,/ | B,2 B, | B,2 B, | (B,A,)G, | (G,2 F,) | z3 | z3 | %35
w: je- * nen|Män- nern,|die * ver-|bün- det für|Wahr- heit,|Recht und|Mensch- * lich-|keit, _|||
 z3 | z z z/ B,/ | (B,C)B, | =A,2 (F,/G,/) | _A,2 A, | A, G,2 | A,E,F, | G,2 C | (B,E)D | (DCB,) | %45
w: |der|Freund- * schaft|ein A- *|syl ge-|grün- det,|Heil ih- nen,|Heil für|al- * le|Zeit, _ _|
 =A,3 | (_A,G,)A, | G,2 F, |[M:4/4] !fermata!E,2 z2 z4 | z8 | z8 | z8 | %52
w: Heil,|Heil _ für|al- le|Zeit.||||
 z2!pp! =B,2"^(solo)" B,3 B, | C2 F,2 E,2 F,2 | E,2 D,>"^cresc."D, E,2 E,2 | %55
w: Wie vie- le|auch schon heim- ge-|gan- gen, ihr gro- ßes,|
"^al" E,2 E,2!f! F,2 G,2 | A,4 z4 | z8 | z4 z3/2!f! G,/ G,>G, | C2 G,2 G,2 G,2 | G,2 F,4 z2 | z8 | %62
w: schö- nes Werk be-|steht,||an ih- ren|Leh- ren lasst uns|han- gen,||
 z4 z3/2!pp! ^F,/ F,>F, | G,2"^cresc." B,2 =A,2 G,2 | ^F,2 F,>"^cresc."F, G,2 G,2 | %65
w: an ih- ren|Leh- ren lasst uns|han- gen, auf dass dies|
 G,2 G,2!f! ^F,3 F, | G,8- | G,6 z2 | z2!p! B,2 B,3 E, | E,2!<(! E,2 F,2!<)! _G,2 | %70
w: Werk nie un- ter-|geht,|_|Doch euch, die|ihr uns nah- ge-|
!>(! _G,2 F,2!>)! F,2 E,>_D, | _D,2 D,2 C,2 =G,2 | A,3!pp! A, A,2 A,2 | A,2 A,4 A,>A, | %74
w: blie- ben, euch grü- ßen|wir aus vol- ler|Brust, und un- ser|Dan- ken, un- ser|
 A,2 A,7/2"^cresc." B,/ B,>B, | B,7/2 B,/ B,2 B,2 |[M:3/8]!f! B,3 | z3 |!f!"^(tutti)" B,A,G, | %79
w: Lie- ben er- kennt in|die- ses Ta- ges|Lust!||Auf Freun- de|
 F,2 G, | A,2- A,/A,/ | A, G,2 | B,B,B, | B,2 B, | (B,A,)G, | (G,2 F,) | z3 | z3 | z3 | %89
w: lasst das|Jahr _ uns|sin- gen,|das un- sers|Bun- des|Wie- * ge|war, _||||
 z z z/ B,/ | (B,C)B, | =A,2 (F,/G,/) | _A,2 A, | A, G,2 | A,E,F, | G,2 C | (B,E)D | (DCB,) | %98
w: Ein|vol- * les|Glas der _|Vor- zeit|brin- gen,|die die- sen|Fest- tag|uns * ge-|bar, _ _|
 =A,2 A, | (G,2 B,- | B,A,G, | F,2) F, | A,2 A, |"^ten" !fermata!G,3 |] %104
w: die- sen|Freu- *||* den-|tag ge-|bar.|
V:4
!f! E,E,E, |!f!"^solo" E,E,E, | E,2 E, | E,2- E,/E,/ | E, E,2 | B,=A,_A, | (G,F,)E, | A,,2 A,, | %8
w: |Auf, Freun- de,|lasst das|Jahr _ uns|sin- gen,|das un- sers|Bun- * des|Wie- ge|
 B,,2- B,,/B,/ | (B,C)B, | =A,2 (F,/G,/) | _A,2 A, | A, G,2 | C,3 | F,2 F,, | =B,,2 B,, | %16
w: war, _ ein|vol- * les|Glas der _|Vor- zeit|brin- gen,|ein|Glas der|Vor- zeit|
 C,2 _B,, | A,,C,D, | (E,G,)C | B,2 B,, | C,3 | F,2 F, | (B,,C,)A,, | B,,2 B,, | %24
w: brin- gen,|die die- sen|Fest- * tag|uns ge-|bar,|die- sen|Fest- * tag|uns ge-|
 !fermata![E,,E,]2!f!"^(tutti)" B,, | E,2 E, | E,2 E, | E,2- E,/E,/ | E,E, z/ B,/ | (B,=A,)_A, | %30
w: bar. Und|je- nen|Män- nern,|die * ver-|bün- det für|Wahr- * heit,|
 (G,F,)E, | A,,2 A,, | B,,2- B,,/B,/ | (B,C)B, | =A,2 (F,/G,/) | _A,2 A, | A, G,2 | C,3 | F,2 F,, | %39
w: Recht * und|Mensch- lich-|keit, _ der|Freun- * schaft|ein A- *|syl ge-|grün- det,|ihr|ein A-|
 =B,,2 B,, | C,2 _B,, | A,,C,D, | (E,G,)C | B,2 B,, | C,3 | F,3 | (B,,C,)A,, | B,,2 B,, | %48
w: syl ge-|grün- det,|Heil ih- nen,|Heil * für|al- le|Zeit,|Heil,|Heil _ für|al- le|
[M:4/4] !fermata![E,,E,]2!p!"^solo" G,2 C2 A,2 | G,3 F, E,2 D,2 | D,2 E,>E, G,2 E,2 | %51
w: Zeit. Wie vie- le|auch schon heim- ge-|gan- gen, ihr gro- ßes,|
 D,2 C,2 =B,,2 C,2 | G,,8- | G,,8- | G,,2 z3/2"^cresc." G,,/ C,2 C,2 |"^al" C,2 C,2!f! B,,2 E,2 | %56
w: schö- nes Werk be-|steht,|_|* ihr gro- ßes,|schö- nes Werk be-|
 A,,4 z3/2 A,/ A,>A, | C2 A,2 G,2 F,2 | F,2 =E,6- | E,2 =E,4 E,2 | F,2 F,2 z3/2!f! =E,/ F,>G, | %61
w: steht, an ih- ren|Leh- ren lasst uns|han- gen|_ lasst uns|han- gen, auf dass dies|
 !>!A,2"^dim." !>!G,2 !>!F,2 !>!_E,2 |!p! D,8- | D,8 | z2"^cresc." D,2 G,2 E,2 | D,2 C,2 D,3 D, | %66
w: Werk nie un- ter-|geht,|_|auf dass dies|Werk nie un- ter-|
 [G,,G,]2!f! G,2 D2 B,2 | G,2 D,2 B,,3 D, | G,,8 |!p! A,,8 | A,,6 A,,>A,, | A,,2 A,,2 A,,2 E,2 | %72
w: geht, auf dass dies|Werk nie un- ter-|geht.|Doch|euch grü- ßen|wir aus vol- ler|
 A,3 z z4 | z8 | z4 z3/2"^cresc." A,/ A,>G, | F,7/2 F,/ F,2 E,2 |[M:3/8]!f! D,3 | z3 | %78
w: Brust,||er- kennt's in|die- ses Ta- ges|Lust!||
!f!"^(tutti)" E,E,E, | E,2 E, | E,2- E,/E,/ | E, E,2 | B,=A,_A, | (G,F,)E, | A,,2 A,, | %85
w: Auf Freun- de|lasst das|Jahr _ uns|sin- gen,|das un- sers|Bun- * des|Wie- ge|
 B,,2- B,,/B,/ | (B,C)B, | =A,2 (F,/G,/) | _A,2 A, | A, G,2 | C,3 | F,2 F,, | =B,,2 B,, | %93
w: war, _ ein|vol- * les|Glas der _|Vor- zeit|brin- gen,|ein|Glas der|Vor- zeit|
 C,2 _B,, | A,,C,D, | (E,G,)C | B,2 B,, | C,3 | F,2 F, | B,,3- | B,,3- | B,,2 B,, | B,,2 B,, | %103
w: brin- gen,|die die- sen|Fest- * tag|uns ge-|bar,|die- sen|Freu-||* den-|tag ge-|
"^Berlin d. 15     Januar 1842" !fermata![E,,E,]3 |] %104
w: bar.|

